src/assets/img/icons/duotone-icons/Files/File-done.svg

<?xml version="1.0" encoding="UTF-8"?>
<svg width="24px" height="24px" viewBox="0 0 24 24" version="1.1" xmlns="http://www.w3.org/2000/svg" xmlns:xlink="http://www.w3.org/1999/xlink">
    <!-- Generator: Sketch 52.2 (67145) - http://www.bohemiancoding.com/sketch -->
    <title>Stockholm-icons / Files / File-done</title>
    <desc>Created with Sketch.</desc>
    <g id="Stockholm-icons-/-Files-/-File-done" stroke="none" stroke-width="1" fill="none" fill-rule="evenodd">
        <polygon id="Shape" points="0 0 24 0 24 24 0 24"></polygon>
        <path d="M5.85714286,2 L13.7364114,2 C14.0910962,2 14.4343066,2.12568431 14.7051108,2.35473959 L19.4686994,6.3839416 C19.8056532,6.66894833 20,7.08787823 20,7.52920201 L20,20.0833333 C20,21.8738751 19.9795521,22 18.1428571,22 L5.85714286,22 C4.02044787,22 4,21.8738751 4,20.0833333 L4,3.91666667 C4,2.12612489 4.02044787,2 5.85714286,2 Z M10.875,15.75 C11.1145833,15.75 11.3541667,15.6541667 11.5458333,15.4625 L15.3791667,11.6291667 C15.7625,11.2458333 15.7625,10.6708333 15.3791667,10.2875 C14.9958333,9.90416667 14.4208333,9.90416667 14.0375,10.2875 L10.875,13.45 L9.62916667,12.2041667 C9.29375,11.8208333 8.67083333,11.8208333 8.2875,12.2041667 C7.90416667,12.5875 7.90416667,13.1625 8.2875,13.5458333 L10.2041667,15.4625 C10.3958333,15.6541667 10.6354167,15.75 10.875,15.75 Z" id="Combined-Shape" fill="#335EEA" opacity="0.3"></path>
        <path d="M10.875,15.75 C10.6354167,15.75 10.3958333,15.6541667 10.2041667,15.4625 L8.2875,13.5458333 C7.90416667,13.1625 7.90416667,12.5875 8.2875,12.2041667 C8.67083333,11.8208333 9.29375,11.8208333 9.62916667,12.2041667 L10.875,13.45 L14.0375,10.2875 C14.4208333,9.90416667 14.9958333,9.90416667 15.3791667,10.2875 C15.7625,10.6708333 15.7625,11.2458333 15.3791667,11.6291667 L11.5458333,15.4625 C11.3541667,15.6541667 11.1145833,15.75 10.875,15.75 Z" id="check-path" fill="#335EEA"></path>
    </g>
</svg>

<svg width="24" height="24" viewBox="0 0 24 24" xmlns="http://www.w3.org/2000/svg"><g fill="none" fill-rule="evenodd"><path d="M0 0h24v24H0z"/><path d="M5.857 2h7.88a1.5 1.5 0 01.968.355l4.764 4.029A1.5 1.5 0 0120 7.529v12.554c0 1.79-.02 1.917-1.857 1.917H5.857C4.02 22 4 21.874 4 20.083V3.917C4 2.127 4.02 2 5.857 2zm5.018 13.75c.24 0 .48-.096.67-.287l3.834-3.834a.926.926 0 000-1.341.926.926 0 00-1.341 0l-3.163 3.162-1.246-1.246c-.335-.383-.958-.383-1.341 0a.926.926 0 000 1.342l1.916 1.917a.946.946 0 00.671.287z" fill="#335EEA" opacity=".3"/><path d="M10.875 15.75a.946.946 0 01-.67-.287l-1.918-1.917a.926.926 0 010-1.342c.384-.383 1.007-.383 1.342 0l1.246 1.246 3.162-3.162a.926.926 0 011.342 0 .926.926 0 010 1.341l-3.833 3.834a.946.946 0 01-.671.287z" fill="#335EEA"/></g></svg>
